outputs/icons/general/priority_important_round.svg

<svg xmlns="http://www.w3.org/2000/svg" width="1200" height="1200" fill="none"><path fill="#000" d="M600 1100c276 0 500-224 500-500S876 100 600 100 100 324 100 600s224 500 500 500m-50-750h100v300H550zm0 400h100v100H550z"/></svg>

<svg width="1200" height="1200" viewBox="0 0 1200 1200" fill="none" xmlns="http://www.w3.org/2000/svg"><path d="M600 1100C876 1100 1100 876 1100 600C1100 324 876 100 600 100C324 100 100 324 100 600C100 876 324 1100 600 1100ZM550 350L650 350L650 650L550 650L550 350ZM550 750L650 750L650 850L550 850L550 750Z" fill="black"/></svg>
